src/assets/icons/users.svg

<svg width="14" height="14" viewBox="0 0 14 14" fill="none" xmlns="http://www.w3.org/2000/svg">
<g id="users">
<g clip-path="url(#clip0_156_4702)">
<g id="Vector">
<path fill-rule="evenodd" clip-rule="evenodd" d="M5.74359 4.48717C5.74359 5.97189 6.9519 7.17948 8.4359 7.17948C9.9199 7.17948 11.1282 5.97189 11.1282 4.48717C11.1282 3.00245 9.9199 1.79486 8.4359 1.79486C6.9519 1.79486 5.74359 3.00245 5.74359 4.48717ZM6.82051 4.48717C6.82051 3.59619 7.54564 2.87178 8.4359 2.87178C9.32615 2.87178 10.0513 3.59619 10.0513 4.48717C10.0513 5.37814 9.32615 6.10255 8.4359 6.10255C7.54564 6.10255 6.82051 5.37814 6.82051 4.48717Z" fill="black"/>
<path d="M12.9231 11.6667C12.9231 11.9639 13.1643 12.2051 13.4615 12.2051C13.7588 12.2051 14 11.9646 14 11.6667C14 8.2564 10.1008 8.2564 8.4359 8.2564C6.77098 8.2564 2.8718 8.2564 2.8718 11.6667C2.8718 11.9639 3.11303 12.2051 3.41026 12.2051C3.70749 12.2051 3.94872 11.9639 3.94872 11.6667C3.94872 10.2659 4.71118 9.33332 8.4359 9.33332C12.1599 9.33332 12.9231 10.2659 12.9231 11.6667Z" fill="black"/>
<path d="M4.35572 7.76458C4.28607 7.76458 4.21643 7.76099 4.14536 7.75453C3.57315 7.69997 3.05551 7.42571 2.69007 6.9813C2.32392 6.53761 2.15233 5.97832 2.20689 5.4054C2.26146 4.83248 2.53643 4.31556 2.98013 3.9494C3.42382 3.58325 3.98238 3.41309 4.55531 3.46622C4.8511 3.49494 5.06864 3.75771 5.04064 4.0535C5.01192 4.35002 4.74341 4.56684 4.45336 4.53812C4.16905 4.51084 3.88761 4.59627 3.66577 4.77935C3.4432 4.96243 3.30679 5.22089 3.27951 5.50735C3.25151 5.79381 3.33766 6.07381 3.52074 6.29566C3.70382 6.5175 3.96228 6.65463 4.24874 6.68192C4.48207 6.70417 4.71469 6.65104 4.91715 6.52684C5.17059 6.37032 5.50156 6.45002 5.65736 6.70202C5.81387 6.95545 5.7349 7.28643 5.48218 7.44294C5.13972 7.65545 4.75346 7.76458 4.35572 7.76458Z" fill="black"/>
<path d="M0 11.1282C0 11.4254 0.241231 11.6667 0.538462 11.6667C0.835692 11.6667 1.07692 11.4261 1.07692 11.1282C1.07692 9.51209 1.36195 8.97435 3.05128 8.97435C3.34851 8.97435 3.58974 8.73312 3.58974 8.43589C3.58974 8.13866 3.34851 7.89743 3.05128 7.89743C0.519078 7.89743 0 9.18902 0 11.1282Z" fill="black"/>
</g>
</g>
</g>
<defs>
<clipPath id="clip0_156_4702">
<rect width="14" height="14" fill="white"/>
</clipPath>
</defs>
</svg>

<svg xmlns="http://www.w3.org/2000/svg" fill="none" viewBox="0 0 14 14"><g fill="#000" clip-path="url(#a)"><path fill-rule="evenodd" d="M5.744 4.487A2.696 2.696 0 0 0 8.436 7.18a2.696 2.696 0 0 0 2.692-2.692 2.696 2.696 0 0 0-2.692-2.692 2.696 2.696 0 0 0-2.692 2.692m1.077 0c0-.89.725-1.615 1.615-1.615s1.615.724 1.615 1.615-.725 1.616-1.615 1.616S6.82 5.378 6.82 4.487" clip-rule="evenodd"/><path d="M12.923 11.667a.539.539 0 0 0 1.077 0c0-3.41-3.9-3.41-5.564-3.41s-5.564 0-5.564 3.41a.539.539 0 0 0 1.077 0c0-1.401.762-2.334 4.487-2.334s4.487.933 4.487 2.334M4.356 7.765q-.105 0-.21-.01A2.13 2.13 0 0 1 2.69 6.98a2.14 2.14 0 0 1-.483-1.576c.054-.573.33-1.09.773-1.456a2.15 2.15 0 0 1 1.575-.483.54.54 0 0 1 .486.587.54.54 0 0 1-.588.485 1.07 1.07 0 0 0-1.173.97c-.028.286.058.566.24.788a1.077 1.077 0 0 0 1.396.231.538.538 0 1 1 .566.916 2.13 2.13 0 0 1-1.126.322M0 11.128a.539.539 0 0 0 1.077 0c0-1.616.285-2.154 1.974-2.154a.539.539 0 0 0 0-1.077C.52 7.897 0 9.19 0 11.128"/></g><defs><clipPath id="a"><path fill="#fff" d="M0 0h14v14H0z"/></clipPath></defs></svg>
